X:706
T:Four Kisses, The
R:reel
C:Patrick Ourceau
Z:id:hn-reel-706
M:C|
K:Bm
~B3e fB~B2|afec ABcA|B2aB gBfB|~e3f edcA|
~B3e fB~B2|afec ABcA|Bf~f2 af~f2|1 edcd ~B3A:|2 edcd ~B3c||
|:dAFA defd|cAce aece|BF~F2 GAce|dcAc ~B3c|
d3c defd|cAce aece|Bf~f2 af~f2|1 edcd ~B3c:|2 edcd ~B3A||
